src/assets/outline/CreativeCommons.svg

<svg width="24" height="24" viewBox="0 0 24 24"  xmlns="http://www.w3.org/2000/svg">
<path d="M12 22.75C6.07 22.75 1.25 17.93 1.25 12C1.25 6.07 6.07 1.25 12 1.25C17.93 1.25 22.75 6.07 22.75 12C22.75 17.93 17.93 22.75 12 22.75ZM12 2.75C6.9 2.75 2.75 6.9 2.75 12C2.75 17.1 6.9 21.25 12 21.25C17.1 21.25 21.25 17.1 21.25 12C21.25 6.9 17.1 2.75 12 2.75Z" />
<path d="M8.99011 15.6199C6.99011 15.6199 5.37012 13.9999 5.37012 11.9999C5.37012 9.99988 6.99011 8.37988 8.99011 8.37988C9.87011 8.37988 10.7101 8.69991 11.3801 9.27991C11.6901 9.54991 11.7201 10.0299 11.4501 10.3399C11.1801 10.6499 10.7001 10.6799 10.3901 10.4099C10.0001 10.0699 9.51011 9.87988 8.99011 9.87988C7.82011 9.87988 6.87012 10.8299 6.87012 11.9999C6.87012 13.1699 7.82011 14.1199 8.99011 14.1199C9.50011 14.1199 10.0001 13.9299 10.3901 13.5899C10.7001 13.3199 11.1701 13.3499 11.4501 13.6599C11.7201 13.9699 11.6901 14.4498 11.3801 14.7198C10.7101 15.2998 9.86011 15.6199 8.99011 15.6199Z" />
<path d="M15.9901 15.6199C13.9901 15.6199 12.3701 13.9999 12.3701 11.9999C12.3701 9.99988 13.9901 8.37988 15.9901 8.37988C16.8701 8.37988 17.7101 8.69991 18.3801 9.27991C18.6901 9.54991 18.7201 10.0299 18.4501 10.3399C18.1801 10.6499 17.7001 10.6799 17.3901 10.4099C17.0001 10.0699 16.5101 9.87988 15.9901 9.87988C14.8201 9.87988 13.8701 10.8299 13.8701 11.9999C13.8701 13.1699 14.8201 14.1199 15.9901 14.1199C16.5001 14.1199 17.0001 13.9299 17.3901 13.5899C17.7001 13.3199 18.1701 13.3499 18.4501 13.6599C18.7201 13.9699 18.6901 14.4498 18.3801 14.7198C17.7101 15.2998 16.8601 15.6199 15.9901 15.6199Z" />
</svg>

<?xml version="1.0" encoding="UTF-8"?>
<svg width="24" height="24" viewBox="0 0 24 24" xmlns="http://www.w3.org/2000/svg">
 <path d="m12 22.75c-5.93 0-10.75-4.82-10.75-10.75s4.82-10.75 10.75-10.75 10.75 4.82 10.75 10.75-4.82 10.75-10.75 10.75zm0-20c-5.1 0-9.25 4.15-9.25 9.25s4.15 9.25 9.25 9.25 9.25-4.15 9.25-9.25-4.15-9.25-9.25-9.25z"/>
 <path d="m8.9901 15.62c-2 0-3.62-1.62-3.62-3.62 0-2 1.62-3.62 3.62-3.62 0.88 0 1.72 0.32003 2.39 0.90003 0.31 0.27 0.34 0.74999 0.07 1.06s-0.75 0.34-1.06 0.07c-0.39-0.34-0.87999-0.53002-1.4-0.53002-1.17 0-2.12 0.95002-2.12 2.12s0.94999 2.12 2.12 2.12c0.51 0 1.01-0.19 1.4-0.53 0.31-0.27 0.78-0.24 1.06 0.07 0.27 0.31 0.24 0.7899-0.07 1.0599-0.67 0.58-1.52 0.9001-2.39 0.9001z"/>
 <path d="m15.99 15.62c-2 0-3.62-1.62-3.62-3.62 0-2 1.62-3.62 3.62-3.62 0.88 0 1.72 0.32003 2.39 0.90003 0.31 0.27 0.34 0.74999 0.07 1.06s-0.75 0.34-1.06 0.07c-0.39-0.34-0.88-0.53002-1.4-0.53002-1.17 0-2.12 0.95002-2.12 2.12s0.95 2.12 2.12 2.12c0.51 0 1.01-0.19 1.4-0.53 0.31-0.27 0.78-0.24 1.06 0.07 0.27 0.31 0.24 0.7899-0.07 1.0599-0.67 0.58-1.52 0.9001-2.39 0.9001z"/>
</svg>
